pointercrate-demonlist-pages/static/images/flags/kr/29.svg

<?xml version="1.0" encoding="UTF-8"?>
<!-- Generator: Adobe Illustrator 13.0.0, SVG Export Plug-In  -->
<!DOCTYPE svg  PUBLIC '-//W3C//DTD SVG 1.1//EN'  'http://www.w3.org/Graphics/SVG/1.1/DTD/svg11.dtd' [
	<!ENTITY ns_flows "http://ns.adobe.com/Flows/1.0/">
]>
<svg width="220px" height="220px" enable-background="new -11.796 -10 220 220" version="1.1" viewBox="-11.796 -10 220 220" xml:space="preserve" xmlns="http://www.w3.org/2000/svg">

<path d="m100.74 106.04c45.774-9.126 71.371 16.899 84.7 39.905 6.991-13.757 10.963-29.376 10.963-45.942 0-6.655-0.647-13.158-1.87-19.453-101.45-17.851-133.46 60.745-143.48 107.2 13.995 7.818 30.056 12.26 47.138 12.26 27.249 0 51.908-11.304 69.69-29.553-19.997-63.079-67.142-64.412-67.142-64.412z" fill="#EF4223"/>
<path d="m161.8 23.813c-17.676 31.338-42.441 46.012-42.441 46.012 13.771-16.913 20.611-40.863 23.965-58.659-13.507-7.132-28.854-11.166-45.127-11.166-34.617 0-65.051 18.243-82.538 45.802 14.24 12.347 46.358 32.862 98.624 27.471 0 0-56.098 10.034-109.46-4.266-3.127 9.752-4.824 20.169-4.824 30.992 0 26.153 9.864 49.954 25.994 67.765 28.366-96.5 139.06-102.29 164.38-102.34-5.895-16.286-15.836-30.584-28.571-41.615zm-66.752 43.807c-9.064 0-16.424-7.414-16.424-16.555 0-9.138 7.36-16.553 16.424-16.553 9.072 0 16.43 7.415 16.43 16.553 0 9.141-7.358 16.555-16.43 16.555z" fill="#EF4223"/>
</svg>

<?xml version="1.0" encoding="utf-8"?>
<!-- Generator: Adobe Illustrator 13.0.0, SVG Export Plug-In  -->
<!DOCTYPE svg PUBLIC "-//W3C//DTD SVG 1.1//EN" "http://www.w3.org/Graphics/SVG/1.1/DTD/svg11.dtd" [
	<!ENTITY ns_flows "http://ns.adobe.com/Flows/1.0/">
]>
<svg version="1.1"
	 xmlns="http://www.w3.org/2000/svg" xmlns:xlink="http://www.w3.org/1999/xlink" xmlns:a="http://ns.adobe.com/AdobeSVGViewerExtensions/3.0/"
	 x="0px" y="0px" width="220px" height="220px" viewBox="-11.796 -10 220 220" enable-background="new -11.796 -10 220 220"
	 xml:space="preserve">
<defs>
</defs>
<path fill="#EF4223" d="M100.745,106.035c45.774-9.126,71.371,16.899,84.7,39.905c6.991-13.757,10.963-29.376,10.963-45.942
	c0-6.655-0.647-13.158-1.87-19.453C93.084,62.694,61.075,141.29,51.059,187.74C65.054,195.558,81.115,200,98.197,200
	c27.249,0,51.908-11.304,69.69-29.553C147.89,107.368,100.745,106.035,100.745,106.035L100.745,106.035z"/>
<path fill="#EF4223" d="M161.8,23.813c-17.676,31.338-42.441,46.012-42.441,46.012c13.771-16.913,20.611-40.863,23.965-58.659
	C129.817,4.034,114.47,0,98.197,0C63.58,0,33.146,18.243,15.659,45.802c14.24,12.347,46.358,32.862,98.624,27.471
	c0,0-56.098,10.034-109.459-4.266C1.697,78.759,0,89.176,0,99.999c0,26.153,9.864,49.954,25.994,67.765
	C54.36,71.264,165.057,65.477,190.371,65.428C184.476,49.142,174.535,34.844,161.8,23.813L161.8,23.813z M95.048,67.62
	c-9.064,0-16.424-7.414-16.424-16.555c0-9.138,7.36-16.553,16.424-16.553c9.072,0,16.43,7.415,16.43,16.553
	C111.478,60.206,104.12,67.62,95.048,67.62L95.048,67.62z"/>
</svg>
